svg/police_badge.svg

<svg xmlns="http://www.w3.org/2000/svg" viewBox="0 0 24 24"><path d="m22 4-2-2c-1.15.64-2.6 1-4 1s-2.86-.37-4-1c-1.14.63-2.6 1-4 1s-2.85-.36-4-1L2 4s2 2 2 4-2 6-2 8c0 4 10 6 10 6s10-2 10-6c0-2-2-6-2-8s2-4 2-4m-6.95 12.45-3.08-1.86-3.07 1.86.82-3.5L7 10.61l3.58-.31L11.97 7l1.4 3.29 3.58.31-2.72 2.34z"/></svg>

<?xml version="1.0" encoding="UTF-8"?><!DOCTYPE svg PUBLIC "-//W3C//DTD SVG 1.1//EN" "http://www.w3.org/Graphics/SVG/1.1/DTD/svg11.dtd"><svg xmlns="http://www.w3.org/2000/svg" xmlns:xlink="http://www.w3.org/1999/xlink" version="1.1" id="mdi-police-badge" width="24" height="24" viewBox="0 0 24 24"><path d="M22 4L20 2C18.85 2.64 17.4 3 16 3C14.6 3 13.14 2.63 12 2C10.86 2.63 9.4 3 8 3C6.6 3 5.15 2.64 4 2L2 4C2 4 4 6 4 8S2 14 2 16C2 20 12 22 12 22S22 20 22 16C22 14 20 10 20 8S22 4 22 4M15.05 16.45L11.97 14.59L8.9 16.45L9.72 12.95L7 10.61L10.58 10.3L11.97 7L13.37 10.29L16.95 10.6L14.23 12.94L15.05 16.45Z" /></svg>
